;FLAVOR:Marlin
;TIME:1609
;Filament used: 1.44906m
;Layer height: 0.2
;Generated with Cura_SteamEngine 3.4.0
G90 ;absolute positioning
M82 ;absolute extrusion mode
M106 S0
M140 S50
M190 S50
M104 S210 T0
M109 S210 T0
G21 ;metric values
M82 ;set extruder to absolute mode
M107 ;start with the fan off
G28 X0 Y0 ;move X/Y to min endstops
G28 Z0 ;move Z to min endstops
G1 Z15.0 F9000 ;move the platform down 15mm
G92 E0 ;zero the extruded length
G1 F200 E4 ;extrude 4mm of feed stock
G92 E0 ;zero the extruded length again
G1 F9000;Put printing message on LCD screen
M117 Printing...
G92 E0
G1 F2400 E-4
;LAYER_COUNT:100
;LAYER:0
M107
G0 F3600 X97.365 Y97.007 Z0.3
;TYPE:SKIRT
G1 F2400 E0
G1 F1200 X97.815 Y96.665 E0.0282
G1 X98.308 Y96.389 E0.05639
G1 X98.836 Y96.185 E0.08463
G1 X99.386 Y96.058 E0.11279
G1 X100.009 Y96.009 E0.14397
G1 X119.991 Y96.01 E1.14087
G1 X120.555 Y96.05 E1.16908
G1 X121.108 Y96.169 E1.1973
G1 X121.638 Y96.365 E1.22549
G1 X122.136 Y96.633 E1.25371
G1 X122.59 Y96.97 E1.28192
G1 X122.993 Y97.366 E1.3101
G1 X123.336 Y97.816 E1.33833
G1 X123.611 Y98.309 E1.3665
G1 X123.815 Y98.837 E1.39474
G1 X123.942 Y99.388 E1.42295
G1 X123.991 Y100.01 E1.45407
G1 X123.991 Y119.991 E2.45093
G1 X123.951 Y120.555 E2.47914
G1 X123.832 Y121.108 E2.50736
G1 X123.636 Y121.638 E2.53555
G1 X123.368 Y122.135 E2.56372
G1 X123.032 Y122.59 E2.59194
G1 X122.635 Y122.993 E2.62016
G1 X122.185 Y123.335 E2.64836
G1 X121.692 Y123.611 E2.67655
G1 X121.164 Y123.815 E2.70479
G1 X120.614 Y123.942 E2.73295
G1 X119.991 Y123.991 E2.76413
G1 X100.009 Y123.991 E3.76104
G1 X99.445 Y123.951 E3.78924
G1 X98.892 Y123.832 E3.81747
G1 X98.362 Y123.636 E3.84566
G1 X97.865 Y123.368 E3.87383
G1 X97.41 Y123.032 E3.90205
G1 X97.007 Y122.635 E3.93027
G1 X96.665 Y122.185 E3.95847
G1 X96.389 Y121.692 E3.98666
G1 X96.185 Y121.164 E4.0149
G1 X96.058 Y120.614 E4.04306
G1 X96.009 Y119.991 E4.07424
G1 X96.009 Y100.009 E5.07114
G1 X96.049 Y99.445 E5.09935
G1 X96.168 Y98.892 E5.12757
G1 X96.364 Y98.362 E5.15576
G1 X96.632 Y97.865 E5.18393
G1 X96.968 Y97.41 E5.21215
G1 X97.365 Y97.007 E5.24037
G0 F3600 X97.756 Y97.201
G1 F1200 X98.198 Y96.898 E5.26711
G1 X98.681 Y96.663 E5.29391
G1 X99.192 Y96.503 E5.32062
G1 X99.722 Y96.42 E5.34739
G1 X100.009 Y96.409 E5.36172
G1 X119.991 Y96.41 E6.35862
G1 X120.526 Y96.45 E6.38539
G1 X121.049 Y96.569 E6.41215
G1 X121.548 Y96.764 E6.43888
G1 X122.013 Y97.032 E6.46565
G1 X122.433 Y97.365 E6.49239
G1 X122.799 Y97.757 E6.51915
G1 X123.103 Y98.199 E6.54591
G1 X123.337 Y98.682 E6.57269
G1 X123.497 Y99.194 E6.59945
G1 X123.58 Y99.723 E6.62617
G1 X123.591 Y100.01 E6.64049
G1 X123.591 Y119.991 E7.63735
G1 X123.551 Y120.526 E7.66412
G1 X123.432 Y121.049 E7.69088
G1 X123.237 Y121.548 E7.7176
G1 X122.969 Y122.013 E7.74438
G1 X122.636 Y122.433 E7.77112
G1 X122.244 Y122.799 E7.79788
G1 X121.802 Y123.102 E7.82461
G1 X121.319 Y123.337 E7.85141
G1 X120.808 Y123.497 E7.87812
G1 X120.278 Y123.58 E7.90489
G1 X119.991 Y123.591 E7.91922
G1 X100.009 Y123.591 E8.91612
G1 X99.474 Y123.551 E8.94289
G1 X98.951 Y123.432 E8.96965
G1 X98.452 Y123.237 E8.99638
G1 X97.987 Y122.969 E9.02315
G1 X97.567 Y122.636 E9.04989
G1 X97.201 Y122.244 E9.07665
G1 X96.898 Y121.802 E9.10339
G1 X96.663 Y121.319 E9.13018
G1 X96.503 Y120.808 E9.1569
G1 X96.42 Y120.278 E9.18366
G1 X96.409 Y119.991 E9.19799
G1 X96.409 Y100.009 E10.1949
G1 X96.449 Y99.474 E10.22166
G1 X96.568 Y98.951 E10.24842
G1 X96.763 Y98.452 E10.27515
G1 X97.031 Y97.987 E10.30193
G1 X97.364 Y97.567 E10.32867
G1 X97.756 Y97.201 E10.35542
G0 F3600 X97.758 Y97.734
G1 F1200 X98.145 Y97.408 E10.38067
G1 X98.578 Y97.147 E10.40589
G1 X99.046 Y96.957 E10.43109
G1 X99.539 Y96.844 E10.45633
G1 X100.009 Y96.809 E10.47984
G1 X119.991 Y96.81 E11.47675
G1 X120.495 Y96.85 E11.50197
G1 X120.987 Y96.969 E11.52722
G1 X121.453 Y97.164 E11.55243
G1 X121.883 Y97.429 E11.57762
G1 X122.266 Y97.76 E11.60288
G1 X122.592 Y98.146 E11.62809
G1 X122.853 Y98.579 E11.65331
G1 X123.043 Y99.048 E11.67856
G1 X123.156 Y99.54 E11.70374
G1 X123.191 Y100.01 E11.72725
G1 X123.191 Y119.991 E12.72411
G1 X123.151 Y120.495 E12.74933
G1 X123.032 Y120.986 E12.77454
G1 X122.838 Y121.453 E12.79977
G1 X122.572 Y121.883 E12.82499
G1 X122.242 Y122.266 E12.85022
G1 X121.855 Y122.592 E12.87546
G1 X121.422 Y122.853 E12.90068
G1 X120.954 Y123.043 E12.92588
G1 X120.461 Y123.156 E12.95112
G1 X119.991 Y123.191 E12.97463
G1 X100.009 Y123.191 E13.97154
G1 X99.505 Y123.151 E13.99676
G1 X99.014 Y123.032 E14.02197
G1 X98.547 Y122.838 E14.0472
G1 X98.117 Y122.572 E14.07242
G1 X97.734 Y122.242 E14.09764
G1 X97.408 Y121.855 E14.12289
G1 X97.147 Y121.422 E14.14811
G1 X96.957 Y120.954 E14.17331
G1 X96.844 Y120.461 E14.19854
G1 X96.809 Y119.991 E14.22206
G1 X96.809 Y100.009 E15.21896
G1 X96.849 Y99.505 E15.24419
G1 X96.968 Y99.014 E15.26939
G1 X97.162 Y98.547 E15.29462
G1 X97.428 Y98.117 E15.31985
G1 X97.758 Y97.734 E15.34507
G1 F2400 E11.34507
G0 F3600 X100.614 Y99.335
G0 X100.614 Y100.614
G0 X119.33 Y119.33
G0 X119.4 Y119.4
;TYPE:WALL-INNER
G1 F2400 E15.34507
G1 F1200 X100.6 Y119.4 E16.28301
G1 X100.6 Y100.6 E17.22094
G1 X119.4 Y100.6 E18.15888
G1 X119.4 Y119.4 E19.09681
G0 F3600 X119.8 Y119.8
;TYPE:WALL-OUTER
G1 F1200 X100.2 Y119.8 E20.07466
G1 X100.2 Y100.2 E21.05251
G1 X119.8 Y100.2 E22.03036
G1 X119.8 Y119.8 E23.00821
G0 F3600 X119.6 Y119.8
G0 X119.33 Y119.33
G0 X119.01 Y119.01
;TYPE:SKIN
G1 F1200 X100.99 Y119.01 E23.90723
G1 X100.99 Y100.99 E24.80625
G1 X119.01 Y100.99 E25.70527
G1 X119.01 Y119.01 E26.60429
G0 F3600 X118.829 Y101.293
G0 X118.767 Y101.231
G1 F1200 X118.484 Y101.514 E26.63289
G1 X118.899 Y101.928
G0 F3600 X118.829 Y102.424
G1 F1200 X117.574 Y101.17 E26.72141
G1 X117.504 Y101.1
G0 F3600 X117.009 Y101.17
G1 F1200 X118.829 Y102.99 E26.84982
G1 X118.899 Y103.06
G0 F3600 X118.829 Y103.555
G1 F1200 X116.443 Y101.17 E27.01813
G1 X116.373 Y101.1
G0 F3600 X115.877 Y101.17
G1 F1200 X118.829 Y104.121 E27.22637
G1 X118.899 Y104.191
G0 F3600 X118.829 Y104.687
G1 F1200 X115.312 Y101.17 E27.47451
G1 X115.242 Y101.1
G0 F3600 X114.746 Y101.17
G1 F1200 X118.829 Y105.252 E27.76256
G1 X118.899 Y105.322
G0 F3600 X118.829 Y105.818
G1 F1200 X114.18 Y101.17 E28.09053
G1 X114.11 Y101.1
G0 F3600 X113.615 Y101.17
G1 F1200 X118.829 Y106.384 E28.45841
G1 X118.899 Y106.454
G0 F3600 X118.829 Y106.949
G1 F1200 X113.049 Y101.17 E28.86618
G1 X112.979 Y101.1
G0 F3600 X112.483 Y101.17
G1 F1200 X118.829 Y107.515 E29.31389
G1 X118.899 Y107.585
G0 F3600 X118.829 Y108.081
G1 F1200 X111.918 Y101.17 E29.8015
G1 X111.848 Y101.1
G0 F3600 X111.352 Y101.17
G1 F1200 X118.829 Y108.646 E30.32901
G1 X118.899 Y108.716
G0 F3600 X118.829 Y109.212
G1 F1200 X110.786 Y101.17 E30.89645
G1 X110.716 Y101.1
G0 F3600 X110.22 Y101.17
G1 F1200 X118.829 Y109.778 E31.50383
G1 X118.899 Y109.848
G0 F3600 X118.829 Y110.344
G1 F1200 X109.655 Y101.17 E32.1511
G1 X109.585 Y101.1
G0 F3600 X109.089 Y101.17
G1 F1200 X118.829 Y110.909 E32.83828
G1 X118.899 Y110.979
G0 F3600 X118.829 Y111.475
G1 F1200 X108.523 Y101.17 E33.56539
G1 X108.453 Y101.1
G0 F3600 X107.958 Y101.17
G1 F1200 X118.829 Y112.041 E34.33239
G1 X118.899 Y112.111
G0 F3600 X118.829 Y112.606
G1 F1200 X107.392 Y101.17 E35.1393
G1 X107.322 Y101.1
G0 F3600 X106.826 Y101.17
G1 F1200 X118.829 Y113.172 E35.98614
G1 X118.899 Y113.242
G0 F3600 X118.829 Y113.738
G1 F1200 X106.261 Y101.17 E36.87288
G1 X106.191 Y101.1
G0 F3600 X105.695 Y101.17
G1 F1200 X118.829 Y114.303 E37.79952
G1 X118.899 Y114.373
G0 F3600 X118.829 Y114.869
G1 F1200 X105.129 Y101.17 E38.76609
G1 X105.059 Y101.1
G0 F3600 X104.564 Y101.17
G1 F1200 X118.829 Y115.435 E39.77257
G1 X118.899 Y115.505
G0 F3600 X118.829 Y116
G1 F1200 X103.998 Y101.17 E40.81894
G1 X103.928 Y101.1
G0 F3600 X103.432 Y101.17
G1 F1200 X118.829 Y116.566 E41.90525
G1 X118.899 Y116.636
G0 F3600 X118.829 Y117.132
G1 F1200 X102.867 Y101.17 E43.03145
G1 X102.797 Y101.1
G0 F3600 X102.301 Y101.17
G1 F1200 X118.829 Y117.697 E44.19756
G1 X118.899 Y117.767
G0 F3600 X118.829 Y118.263
G1 F1200 X101.735 Y101.17 E45.40359
G1 X101.665 Y101.1
G0 F3600 X101.169 Y101.169
G1 F1200 X118.829 Y118.829 E46.6496
G1 X118.899 Y118.899
G0 F3600 X118.263 Y118.829
G1 F1200 X101.169 Y101.734 E47.85571
G1 X101.099 Y101.664
G0 F3600 X101.169 Y102.3
G1 F1200 X117.697 Y118.829 E49.02189
G1 X117.767 Y118.899
G0 F3600 X117.132 Y118.829
G1 F1200 X101.169 Y102.866 E50.14816
G1 X101.099 Y102.796
G0 F3600 X101.169 Y103.432
G1 F1200 X116.566 Y118.829 E51.2345
G1 X116.636 Y118.899
G0 F3600 X116 Y118.829
G1 F1200 X101.169 Y103.997 E52.28095
G1 X101.099 Y103.927
G0 F3600 X101.169 Y104.563
G1 F1200 X115.435 Y118.829 E53.28749
G1 X115.505 Y118.899
G0 F3600 X114.869 Y118.829
G1 F1200 X101.169 Y105.129 E54.2541
G1 X101.099 Y105.059
G0 F3600 X101.169 Y105.694
G1 F1200 X114.303 Y118.829 E55.18081
G1 X114.373 Y118.899
G0 F3600 X113.738 Y118.829
G1 F1200 X101.169 Y106.26 E56.06762
G1 X101.099 Y106.19
G0 F3600 X101.169 Y106.826
G1 F1200 X113.172 Y118.829 E56.9145
G1 X113.242 Y118.899
G0 F3600 X112.606 Y118.829
G1 F1200 X101.169 Y107.391 E57.72147
G1 X101.099 Y107.321
G0 F3600 X101.169 Y107.957
G1 F1200 X112.041 Y118.829 E58.48855
G1 X112.111 Y118.899
G0 F3600 X111.475 Y118.829
G1 F1200 X101.169 Y108.523 E59.2157
G1 X101.099 Y108.453
G0 F3600 X101.169 Y109.088
G1 F1200 X110.909 Y118.829 E59.90294
G1 X110.979 Y118.899
G0 F3600 X110.344 Y118.829
G1 F1200 X101.169 Y109.654 E60.55029
G1 X101.099 Y109.584
G0 F3600 X101.169 Y110.22
G1 F1200 X109.778 Y118.829 E61.1577
G1 X109.848 Y118.899
G0 F3600 X109.212 Y118.829
G1 F1200 X101.169 Y110.785 E61.72521
G1 X101.099 Y110.715
G0 F3600 X101.169 Y111.351
G1 F1200 X108.646 Y118.829 E62.25279
G1 X108.716 Y118.899
G0 F3600 X108.081 Y118.829
G1 F1200 X101.169 Y111.917 E62.74047
G1 X101.099 Y111.847
G0 F3600 X101.169 Y112.483
G1 F1200 X107.515 Y118.829 E63.18821
G1 X107.585 Y118.899
G0 F3600 X106.949 Y118.829
G1 F1200 X101.169 Y113.048 E63.59606
G1 X101.099 Y112.978
G0 F3600 X101.169 Y113.614
G1 F1200 X106.384 Y118.829 E63.964
G1 X106.454 Y118.899
G0 F3600 X105.818 Y118.829
G1 F1200 X101.169 Y114.18 E64.29202
G1 X101.099 Y114.11
G0 F3600 X101.169 Y114.745
G1 F1200 X105.252 Y118.829 E64.58013
G1 X105.322 Y118.899
G0 F3600 X104.687 Y118.829
G1 F1200 X101.169 Y115.311 E64.82834
G1 X101.099 Y115.241
G0 F3600 X101.169 Y115.877
G1 F1200 X104.121 Y118.829 E65.03662
G1 X104.191 Y118.899
G0 F3600 X103.555 Y118.829
G1 F1200 X101.169 Y116.442 E65.205
G1 X101.099 Y116.372
G0 F3600 X101.169 Y117.008
G1 F1200 X102.99 Y118.829 E65.33348
G1 X103.06 Y118.899
G0 F3600 X102.424 Y118.829
G1 F1200 X101.169 Y117.574 E65.42203
G1 X101.099 Y117.504
G0 F3600 X101.169 Y118.139
G1 F1200 X101.858 Y118.829 E65.47068
G1 X101.928 Y118.899
G0 F3600 X101.293 Y118.829
G1 F1200 X101.169 Y118.705 E65.47943
G0 F3600 X119.33 Y119.33
G0 X119.4 Y119.4
;TIME_ELAPSED:76.975632
;LAYER:1
M140 S60
M106 S255
G0 F4800 X119.4 Y119.4 Z0.5
;TYPE:WALL-INNER
G1 F1600 X100.6 Y119.4 E66.10472
G1 X100.6 Y100.6 E66.73001
G1 X119.4 Y100.6 E67.3553
G1 X119.4 Y119.4 E67.98059
G0 F4800 X119.8 Y119.8
;TYPE:WALL-OUTER
G1 F1200 X100.2 Y119.8 E68.63249
G1 X100.2 Y100.2 E69.28439
G1 X119.8 Y100.2 E69.93629
G1 X119.8 Y119.8 E70.58818
G0 F4800 X119.6 Y119.8
G0 X119.33 Y119.33
G0 X119.01 Y119.01
;TYPE:SKIN
G1 F1200 X100.99 Y119.01 E71.18753
G1 X100.99 Y100.99 E71.78688
G1 X119.01 Y100.99 E72.38623
G1 X119.01 Y119.01 E72.98558
G0 F4800 X118.793 Y118.793
G1 F1200 X118.51 Y118.51 E73.00221
G1 X118.122 Y118.899
G0 F4800 X117.627 Y118.829
G1 F1200 X118.829 Y117.627 E73.05875
G1 X118.899 Y117.557
G0 F4800 X118.829 Y117.061
G1 F1200 X117.061 Y118.829 E73.14191
G1 X116.991 Y118.899
G0 F4800 X116.495 Y118.829
G1 F1200 X118.829 Y116.495 E73.2517
G1 X118.899 Y116.425
G0 F4800 X118.829 Y115.93
G1 F1200 X115.93 Y118.829 E73.38806
G1 X115.86 Y118.899
G0 F4800 X115.364 Y118.829
G1 F1200 X118.829 Y115.364 E73.55104
G1 X118.899 Y115.294
G0 F4800 X118.829 Y114.798
G1 F1200 X114.798 Y118.829 E73.74065
G1 X114.728 Y118.899
G0 F4800 X114.233 Y118.829
G1 F1200 X118.829 Y114.233 E73.95683
G1 X118.899 Y114.163
G0 F4800 X118.829 Y113.667
G1 F1200 X113.667 Y118.829 E74.19963
G1 X113.597 Y118.899
G0 F4800 X113.101 Y118.829
G1 F1200 X118.829 Y113.101 E74.46906
G1 X118.899 Y113.031
G0 F4800 X118.829 Y112.536
G1 F1200 X112.536 Y118.829 E74.76506
G1 X112.466 Y118.899
G0 F4800 X111.97 Y118.829
G1 F1200 X118.829 Y111.97 E75.08769
G1 X118.899 Y111.9
G0 F4800 X118.829 Y111.404
G1 F1200 X111.404 Y118.829 E75.43694
G1 X111.334 Y118.899
G0 F4800 X110.838 Y118.829
G1 F1200 X118.829 Y110.838 E75.81281
G1 X118.899 Y110.768
G0 F4800 X118.829 Y110.273
G1 F1200 X110.273 Y118.829 E76.21526
G1 X110.203 Y118.899
G0 F4800 X109.707 Y118.829
G1 F1200 X118.829 Y109.707 E76.64433
G1 X118.899 Y109.637
G0 F4800 X118.829 Y109.141
G1 F1200 X109.141 Y118.829 E77.10003
G1 X109.071 Y118.899
G0 F4800 X108.576 Y118.829
G1 F1200 X118.829 Y108.576 E77.5823
G1 X118.899 Y108.506
G0 F4800 X118.829 Y108.01
G1 F1200 X108.01 Y118.829 E78.09119
G1 X107.94 Y118.899
G0 F4800 X107.444 Y118.829
G1 F1200 X118.829 Y107.444 E78.6267
G1 X118.899 Y107.374
G0 F4800 X118.829 Y106.879
G1 F1200 X106.879 Y118.829 E79.18879
G1 X106.809 Y118.899
G0 F4800 X106.313 Y118.829
G1 F1200 X118.829 Y106.313 E79.77751
G1 X118.899 Y106.243
G0 F4800 X118.829 Y105.747
G1 F1200 X105.747 Y118.829 E80.39285
G1 X105.677 Y118.899
G0 F4800 X105.182 Y118.829
G1 F1200 X118.829 Y105.182 E81.03476
G1 X118.899 Y105.112
G0 F4800 X118.829 Y104.616
G1 F1200 X104.616 Y118.829 E81.70329
G1 X104.546 Y118.899
G0 F4800 X104.05 Y118.829
G1 F1200 X118.829 Y104.05 E82.39845
G1 X118.899 Y103.98
G0 F4800 X118.829 Y103.485
G1 F1200 X103.485 Y118.829 E83.12019
G1 X103.415 Y118.899
G0 F4800 X102.919 Y118.829
G1 F1200 X118.829 Y102.919 E83.86855
G1 X118.899 Y102.849
G0 F4800 X118.829 Y102.353
G1 F1200 X102.353 Y118.829 E84.64353
G1 X102.283 Y118.899
G0 F4800 X101.788 Y118.829
G1 F1200 X118.829 Y101.788 E85.44508
G1 X118.899 Y101.718
G0 F4800 X118.829 Y101.222
G1 F1200 X101.222 Y118.829 E86.27326
G1 X101.152 Y118.899
G0 F4800 X101.17 Y118.315
G1 F1200 X118.316 Y101.169 E87.07976
G1 X118.386 Y101.099
G0 F4800 X117.75 Y101.169
G1 F1200 X101.17 Y117.75 E87.85965
G1 X101.1 Y117.82
G0 F4800 X101.17 Y117.184
G1 F1200 X117.185 Y101.169 E88.61295
G1 X117.255 Y101.099
G0 F4800 X116.619 Y101.169
G1 F1200 X101.17 Y116.618 E89.33962
G1 X101.1 Y116.688
G0 F4800 X101.17 Y116.053
G1 F1200 X116.053 Y101.169 E90.0397
G1 X116.123 Y101.099
G0 F4800 X115.488 Y101.169
G1 F1200 X101.17 Y115.487 E90.71317
G1 X101.1 Y115.557
G0 F4800 X101.17 Y114.921
G1 F1200 X114.922 Y101.169 E91.36002
G1 X114.992 Y101.099
G0 F4800 X114.356 Y101.169
G1 F1200 X101.17 Y114.356 E91.98028
G1 X101.1 Y114.426
G0 F4800 X101.17 Y113.79
G1 F1200 X113.791 Y101.169 E92.57393
G1 X113.861 Y101.099
G0 F4800 X113.225 Y101.169
G1 F1200 X101.17 Y113.224 E93.14096
G1 X101.1 Y113.294
G0 F4800 X101.17 Y112.659
G1 F1200 X112.659 Y101.169 E93.68139
G1 X112.729 Y101.099
G0 F4800 X112.094 Y101.169
G1 F1200 X101.17 Y112.093 E94.19522
G1 X101.1 Y112.163
G0 F4800 X101.17 Y111.527
G1 F1200 X111.528 Y101.169 E94.68243
G1 X111.598 Y101.099
G0 F4800 X110.962 Y101.169
G1 F1200 X101.17 Y110.962 E95.14304
G1 X101.1 Y111.032
G0 F4800 X101.17 Y110.396
G1 F1200 X110.397 Y101.169 E95.57705
G1 X110.467 Y101.099
G0 F4800 X109.831 Y101.169
G1 F1200 X101.17 Y109.83 E95.98444
G1 X101.1 Y109.9
G0 F4800 X101.17 Y109.264
G1 F1200 X109.265 Y101.169 E96.3652
G1 X109.335 Y101.099
G0 F4800 X108.699 Y101.169
G1 F1200 X101.17 Y108.699 E96.71937
G1 X101.1 Y108.769
G0 F4800 X101.17 Y108.133
G1 F1200 X108.134 Y101.169 E97.04693
G1 X108.204 Y101.099
G0 F4800 X107.568 Y101.169
G1 F1200 X101.17 Y107.567 E97.34787
G1 X101.1 Y107.637
G0 F4800 X101.17 Y107.002
G1 F1200 X107.002 Y101.169 E97.62222
G1 X107.072 Y101.099
G0 F4800 X106.437 Y101.169
G1 F1200 X101.17 Y106.436 E97.86996
G1 X101.1 Y106.506
G0 F4800 X101.17 Y105.87
G1 F1200 X105.871 Y101.169 E98.09108
G1 X105.941 Y101.099
G0 F4800 X105.305 Y101.169
G1 F1200 X101.17 Y105.305 E98.2856
G1 X101.1 Y105.375
G0 F4800 X101.17 Y104.739
G1 F1200 X104.74 Y101.169 E98.45352
G1 X104.81 Y101.099
G0 F4800 X104.174 Y101.169
G1 F1200 X101.17 Y104.173 E98.59482
G1 X101.1 Y104.243
